Papirus/32x32/devices/input-tablet.svg

<svg xmlns="http://www.w3.org/2000/svg" width="32" height="32" version="1">
 <rect fill="#4f4f4f" width="22" height="28" x="-27" y="2" rx="1.5" ry="1.5" transform="rotate(-90)"/>
 <path fill="#fff" opacity=".1" d="m28.5 5c0.831 0 1.5 0.669 1.5 1.5v1c0-0.831-0.669-1.5-1.5-1.5h-25c-0.831 0-1.5 0.669-1.5 1.5v-1c0-0.831 0.669-1.5 1.5-1.5h25z"/>
 <path opacity=".2" d="m2 25.5v1c0 0.831 0.669 1.5 1.5 1.5h25c0.831 0 1.5-0.669 1.5-1.5v-1c0 0.831-0.669 1.5-1.5 1.5h-25c-0.831 0-1.5-0.669-1.5-1.5z"/>
 <path fill="#fff" opacity=".1" d="m3.5 5c-0.831 0-1.5 0.669-1.5 1.5v19c0 0.831 0.669 1.5 1.5 1.5h3.5v-22z"/>
 <circle fill="#1ea362" fill-rule="evenodd" cx="24" cy="23" r="8"/>
 <path fill="#fff" d="m20 25.218v1.7819h1.7819l4.5004-4.5004-1.7819-1.7819zm7.8586-4.2891c0.18848-0.18847 0.18848-0.48545 0-0.67393l-1.1137-1.1137c-0.18848-0.18848-0.48546-0.18848-0.67393 0l-0.93093 0.93664 1.7819 1.7819z"/>
 <path fill-rule="evenodd" opacity=".2" d="m31.979 23.424a8 8 0 0 1 -7.979 7.576 8 8 0 0 1 -7.979 -7.424 8 8 0 0 0 -0.021 0.424 8 8 0 0 0 8 8 8 8 0 0 0 8 -8 8 8 0 0 0 -0.02148 -0.57617z"/>
</svg>

<svg xmlns="http://www.w3.org/2000/svg" width="32" height="32" version="1">
 <rect style="opacity:0.2" width="28" height="22" x="2" y="6" rx="1.5" ry="1.5"/>
 <rect width="28" height="22" x="2" y="5" rx="1.5" ry="1.5" style="fill:#4f4f4f"/>
 <path fill="#ffffff" opacity=".1" d="m3.5 5c-0.831 0-1.5 0.669-1.5 1.5v19c0 0.831 0.669 1.5 1.5 1.5h3.5v-22z"/>
 <circle cx="24" cy="24" r="8" style="opacity:0.2"/>
 <circle fill="#1ea362" cx="24" cy="23" r="8"/>
 <path style="fill:#ffffff" d="M 20,25.218 V 27 H 21.782 L 26.282,22.5 24.5,20.718 Z M 27.859,20.929 C 28.047,20.74 28.047,20.443 27.859,20.255 L 26.745,19.141 C 26.556,18.953 26.259,18.953 26.071,19.141 L 25.14,20.078 26.922,21.86 Z"/>
 <path style="fill:#ffffff;opacity:0.1" d="M 3.5 5 C 2.669 5 2 5.669 2 6.5 L 2 7.5 C 2 6.669 2.669 6 3.5 6 L 28.5 6 C 29.331 6 30 6.669 30 7.5 L 30 6.5 C 30 5.669 29.331 5 28.5 5 L 3.5 5 z"/>
</svg>
